X:36
T:Felmegyek a hegyre
M:4/4
L:1/4
K:F
D/E/F/G/ A d | d/c/B/A/ G A | d<A FE | D2 D z |
D/E/F/G/ A d | d/c/B/A/ G A | d<A FE | D2 D z |
f/f/e/e/ d A | f f g/f/e/d/ | A2 F z |
D/E/F/G/ A d | d/c/B/A/ G/ A A/ | d<A FE | D2 D z |

